Profiles/Styles/rgb_wavelet.exp.base.01.pp3
[Version]
AppVersion=5.8-3158-gd78429518
Version=349

[Exposure]
Auto=false
Clip=0.02
Compensation=0.5
Brightness=0
Contrast=0
Saturation=0
Black=0
HighlightCompr=0
HighlightComprThreshold=0
ShadowCompr=50
HistogramMatching=false
CurveFromHistogramMatching=false
ClampOOG=false
CurveMode=FilmLike
CurveMode2=Standard
Curve=1;0;0;1;1;
Curve2=0;

[HLRecovery]
Enabled=false
Method=Color
Hlbl=0

[Wavelet]
Enabled=true
Strength=100
Balance=0
Sigmafin=1
Sigmaton=1
Sigmacol=1
Sigmadir=1
Rangeab=20
Protab=0
Iter=0
MaxLev=6
TilesMethod=full
complexMethod=expert
denMethod=12low
mixMethod=mix7
sliMethod=sli
quaMethod=cons
DaubMethod=10_
ChoiceLevMethod=all
BackMethod=grey
LevMethod=4
DirMethod=all
CBgreenhigh=0
CBgreenmed=0
CBgreenlow=0
CBbluehigh=0
CBbluemed=0
CBbluelow=0
Ballum=7
Sigm=1
Levden=0
Thrden=0
Limden=0
Balchrom=0
Chromfine=0
Chromcoarse=0
MergeL=20
MergeC=20
Softrad=0
Softradend=0
Strend=50
Detend=0
Thrend=0
Expcontrast=false
Expchroma=false
Expedge=true
expbl=false
Expresid=true
Expfinal=false
Exptoning=false
Expnoise=false
Expclari=false
LabGridALow=0
LabGridBLow=0
LabGridAHigh=0
LabGridBHigh=0
Contrast1=0
Contrast2=0
Contrast3=0
Contrast4=0
Contrast5=0
Contrast6=0
Contrast7=0
Contrast8=0
Contrast9=0
Chroma1=0
Chroma2=0
Chroma3=0
Chroma4=0
Chroma5=0
Chroma6=0
Chroma7=0
Chroma8=0
Chroma9=0
ContExtra=0
HSMethod=with
HLRange=50;75;100;98;
SHRange=0;2;50;25;
Edgcont=0;10;75;40;
Level0noise=0;0;
Level1noise=0;0;
Level2noise=0;0;
Level3noise=0;0;
Leveldenoise=0;0;
Levelsigm=1;1;
ThresholdHighlight=4
ThresholdShadow=5
Edgedetect=90
Edgedetectthr=20
EdgedetectthrHi=0
Edgesensi=60
Edgeampli=10
ThresholdChroma=5
CHromaMethod=link
Medgreinf=less
Ushamethod=clari
CHSLromaMethod=SL
EDMethod=CU
NPMethod=none
BAMethod=none
TMMethod=tm
ChromaLink=0
ContrastCurve=1;0;0.5;0.34999999999999998;0.34999999999999998;0.5;0.5;0.34999999999999998;0.34999999999999998;1;0.5;0.34999999999999998;0.34999999999999998;
blcurve=1;0;0;0;0.34999999999999998;0.5;0;0.34999999999999998;0.34999999999999998;1;0;0.34999999999999998;0.34999999999999998;
Pastlev=0;2;30;20;
Satlev=30;45;130;100;
OpacityCurveRG=1;0;0.5;0.34999999999999998;0.34999999999999998;1;0.5;0.34999999999999998;0.34999999999999998;
Levalshc=1;0;1;0.34999999999999998;0.34999999999999998;0.14999999999999999;0.90000000000000002;0.34999999999999998;0.34999999999999998;0.40000000000000002;0.80000000000000004;0.34999999999999998;0.34999999999999998;0.40000000000000002;0.5;0.34999999999999998;0.34999999999999998;0.5;0.5;0.34999999999999998;0.34999999999999998;0.5;0.20000000000000001;0.34999999999999998;0.34999999999999998;0.80000000000000004;0.10000000000000001;0.34999999999999998;0.34999999999999998;1;0;0.34999999999999998;0.34999999999999998;
OpacityCurveBY=1;0;0.5;0.34999999999999998;0.34999999999999998;1;0.5;0.34999999999999998;0.34999999999999998;
wavdenoise=1;0;1;0.34999999999999998;0.34999999999999998;0.5;1;0.34999999999999998;0.34999999999999998;1;1;0.34999999999999998;0.34999999999999998;
wavdenoiseh=1;0;1;0.34999999999999998;0.34999999999999998;0.5;1;0.34999999999999998;0.34999999999999998;1;1;0.34999999999999998;0.34999999999999998;
OpacityCurveW=1;0;0.34999999999999998;0.34999999999999998;0;0.34999999999999998;0.75;0.34999999999999998;0.34999999999999998;0.59999999999999998;0.75;0.34999999999999998;0.34999999999999998;1;0.34999999999999998;0;0;
OpacityCurveWL=1;0;0.5;0.34999999999999998;0.34999999999999998;1;0.5;0.34999999999999998;0.34999999999999998;
HHcurve=0;
Wavguidcurve=0;
Wavhuecurve=0;
CHcurve=0;
WavclCurve=0;
Median=false
Medianlev=false
Linkedg=false
CBenab=false
Lipst=false
Skinprotect=0
chrwav=0
bluwav=1
Hueskin=-5;25;170;120;
Edgrad=12
Edgeffect=1
Edgval=13
ThrEdg=8
AvoidColorShift=false
Showmask=false
Oldsh=true
TMr=false
Sigma=1
Offset=1
Lowthr=40
ResidualcontShadow=-3
ResidualcontHighlight=3
ThresholdResidShadow=33
ThresholdResidHighLight=67
Residualradius=40
Residualchroma=5
Residualblur=0
Residualblurc=0
ResidualTM=-0.029999999999999999
ResidualEDGS=1.3
ResidualSCALE=1.1000000000000001
Residualgamma=0.96999999999999997
HueRangeResidual=0
HueRange=-260;-250;-130;-140;
Contrast=7

[RGB Curves]
Enabled=true
LumaMode=false
rCurve=1;0;0.073706897296782189;0.1336206896551724;0.11422413793103446;0.25;0.21120689655172406;0.5;0.5;0.7456896551724137;0.78448275862068995;0.86853448275862066;0.89224137931034464;1;0.97500002384185791;
gCurve=1;0;0.073706897296782189;0.1336206896551724;0.11422413793103446;0.25;0.21120689655172406;0.5;0.5;0.7456896551724137;0.78448275862068995;0.86853448275862066;0.89224137931034464;1;0.97500002384185791;
bCurve=1;0;0.073706897296782189;0.1336206896551724;0.11422413793103446;0.25;0.21120689655172406;0.5;0.5;0.7456896551724137;0.78448275862068995;0.86853448275862066;0.89224137931034464;1;0.97500002384185791;
